X:1
T:Si mort a mors
C:fichier abc : Bernard Loffet
L:1/8
Q:260
M:2/2
K:C
 [G2C,,2][GC,]A [c2C,,2][cC,]d | F,,A[AF,]B [AG,,]GG,2 | [f2F,,2][fF,]f [e2C,,2][dC,]c | \
 [d2D,,2][eD,]^f [g2G,,2]G,2 | [a2F,,2][aF,]a [g2C,,2][eC,]d | [c2A,,2][AA,]B [cA,,]d[eA,]f | \
 [gG,,]g[dG,]d [eC,,]e[cC,]c | [A2F,,2][G2F,2] [G2G,,2]G,2 | \
Z:Created with TablEdit http://www.tabledit.com/ by Bernard Loffet
